app/images/icon/icon-svg/reproduction.svg

<svg width="132" height="92" viewBox="0 0 132 92" fill="none" xmlns="http://www.w3.org/2000/svg">
<path d="M121.167 0H105.397C101.04 0 97.2783 2.5866 95.5602 6.30353C92.7621 5.6524 89.7535 5.32258 86.5805 5.32258C83.4075 5.32258 80.3988 5.6524 77.6008 6.30353C75.8825 2.5866 72.1208 0 67.7641 0H51.9936C46.0206 0 41.1611 4.85952 41.1611 10.8325C41.1611 13.0297 41.8241 15.2845 42.9806 17.0186L49.8275 27.2892C50.9236 28.9335 52.4901 30.2326 54.2937 31.0668C50.9423 44.4946 51.9837 67.155 51.9837 66.7097C51.9837 76.9817 60.3407 85.3387 70.6127 85.3387C72.294 85.3387 73.9237 85.1143 75.4742 84.6949C77.9348 88.4464 82.1427 90.8387 86.5805 90.8387C91.0183 90.8387 95.2261 88.4464 97.6868 84.6949C99.2372 85.1143 100.867 85.3387 102.548 85.3387C112.82 85.3387 121.177 76.9817 121.177 66.7097C121.177 53.1508 121.823 41.8955 118.895 31.0537C120.687 30.2191 122.243 28.925 123.333 27.2892L130.18 17.0186C131.337 15.2843 132 13.0295 132 10.8325C132 4.85952 127.14 0 121.167 0ZM54.2563 24.3368L47.4091 14.066C46.8384 13.2099 46.4837 11.9708 46.4837 10.8325C46.4837 7.79439 48.9555 5.32258 51.9936 5.32258H67.7643C70.8022 5.32258 73.274 7.79439 73.274 10.8325C73.274 11.971 72.9194 13.2099 72.3486 14.0663L65.5013 24.3371C64.4774 25.8732 62.7635 26.7903 60.9171 26.7903H59.0182C57.1189 26.7903 55.2498 25.8273 54.2563 24.3368ZM86.5805 85.5161C84.2302 85.5161 81.9786 84.3693 80.4624 82.5151C82.9581 80.9541 85.06 78.8196 86.5805 76.2969C88.101 78.8196 90.2029 80.9541 92.6986 82.5151C91.1824 84.3693 88.9308 85.5161 86.5805 85.5161ZM84.0881 60.4537C84.4671 59.4452 85.4413 58.7258 86.5805 58.7258C87.7197 58.7258 88.6939 59.4452 89.0729 60.4537L86.5805 62.9461L84.0881 60.4537ZM115.855 66.7097C115.855 74.0469 109.885 80.0161 102.548 80.0161C95.5678 80.0161 89.8258 74.6135 89.2836 67.7703L93.7848 63.269C94.284 62.7697 94.5644 62.0929 94.5644 61.3871C94.5644 56.9848 90.9828 53.4032 86.5805 53.4032C82.1782 53.4032 78.5966 56.9848 78.5966 61.3871C78.5966 62.0929 78.8769 62.7697 79.3762 63.2688L83.8773 67.7701C83.3351 74.6135 77.5931 80.0161 70.6127 80.0161C63.2756 80.0161 57.3063 74.0469 57.3063 66.7097C57.3063 66.0284 56.314 44.6722 59.5203 32.1129H60.9171C64.5475 32.1129 67.9167 30.3096 69.9302 27.2892L76.7774 17.0186C77.8092 15.4711 78.4467 13.5091 78.5723 11.5436C81.0386 10.9477 83.7226 10.6452 86.5805 10.6452C89.4384 10.6452 92.1224 10.9477 94.5887 11.5436C94.7143 13.5092 95.3519 15.4711 96.3836 17.0186L103.231 27.2892C103.705 28.0005 104.255 28.6433 104.865 29.2119C102.702 27.6886 100.067 26.7903 97.2256 26.7903C89.8885 26.7903 83.9192 32.7596 83.9192 40.0968C83.9192 47.4339 89.8885 53.4032 97.2256 53.4032C104.563 53.4032 110.532 47.4339 110.532 40.0968C110.532 36.1964 108.845 32.6828 106.163 30.2466C107.93 31.4463 110.039 32.1129 112.244 32.1129H113.667C116.49 42.2377 115.855 52.8348 115.855 66.7097ZM105.21 40.0968C105.21 44.4991 101.628 48.0806 97.2256 48.0806C92.8233 48.0806 89.2418 44.4991 89.2418 40.0968C89.2418 35.6945 92.8233 32.1129 97.2256 32.1129C101.628 32.1129 105.21 35.6945 105.21 40.0968ZM125.752 14.0662L118.905 24.337C117.911 25.8273 116.042 26.7903 114.143 26.7903H112.244C110.397 26.7903 108.684 25.8732 107.66 24.337C107.659 24.337 107.659 24.337 107.659 24.337L100.812 14.0662C100.242 13.2099 99.8869 11.9708 99.8869 10.8325C99.8869 7.79439 102.359 5.32258 105.397 5.32258H121.168C124.205 5.32258 126.677 7.79439 126.677 10.8325C126.677 11.9708 126.323 13.2099 125.752 14.0662Z" fill="#FFC59E"/>
<path d="M75.9357 42.7581C77.4055 42.7581 78.597 41.5666 78.597 40.0968C78.597 38.627 77.4055 37.4355 75.9357 37.4355C74.4659 37.4355 73.2744 38.627 73.2744 40.0968C73.2744 41.5666 74.4659 42.7581 75.9357 42.7581Z" fill="#FFC59E"/>
<path d="M97.2257 42.7581C98.6955 42.7581 99.887 41.5666 99.887 40.0968C99.887 38.627 98.6955 37.4355 97.2257 37.4355C95.756 37.4355 94.5645 38.627 94.5645 40.0968C94.5645 41.5666 95.756 42.7581 97.2257 42.7581Z" fill="#FFC59E"/>
<path d="M43.0771 43.0645H34.783C32.4918 43.0645 30.5133 44.4248 29.6097 46.3796C28.1382 46.0372 26.5558 45.8637 24.8871 45.8637C23.2184 45.8637 21.636 46.0372 20.1644 46.3796C19.2608 44.4248 17.2824 43.0645 14.9911 43.0645H6.69707C3.55573 43.0645 1 45.6202 1 48.7615C1 49.9171 1.3487 51.1029 1.95688 52.0149L5.55786 57.4165C6.13433 58.2813 6.95815 58.9645 7.90673 59.4032C6.14412 66.4652 6.69185 78.3828 6.69185 78.1486C6.69185 83.5509 11.087 87.9461 16.4893 87.9461C17.3735 87.9461 18.2306 87.828 19.046 87.6074C20.3402 89.5805 22.5532 90.8386 24.8871 90.8386C27.221 90.8386 29.434 89.5805 30.7281 87.6074C31.5436 87.828 32.4007 87.9461 33.2849 87.9461C38.6872 87.9461 43.0823 83.5509 43.0823 78.1486C43.0823 71.0177 43.4221 65.0982 41.8819 59.3963C42.8244 58.9574 43.6428 58.2768 44.2162 57.4165L47.8173 52.0149C48.4255 51.1028 48.7742 49.917 48.7742 48.7615C48.7742 45.6202 46.2185 43.0645 43.0771 43.0645ZM7.88704 55.8637L4.28597 50.4621C3.98579 50.0119 3.79927 49.3602 3.79927 48.7615C3.79927 47.1637 5.09925 45.8637 6.69707 45.8637H14.9912C16.5889 45.8637 17.8889 47.1637 17.8889 48.7615C17.8889 49.3603 17.7024 50.0119 17.4022 50.4623L13.8011 55.8639C13.2626 56.6718 12.3612 57.1541 11.3901 57.1541H10.3915C9.39258 57.1541 8.40957 56.6476 7.88704 55.8637ZM24.8871 88.0394C23.651 88.0394 22.4668 87.4362 21.6694 86.4611C22.982 85.6401 24.0874 84.5175 24.8871 83.1908C25.6868 84.5175 26.7922 85.6401 28.1048 86.4611C27.3073 87.4362 26.1232 88.0394 24.8871 88.0394ZM23.5763 74.8585C23.7756 74.3281 24.288 73.9497 24.8871 73.9497C25.4862 73.9497 25.9986 74.3281 26.1979 74.8585L24.8871 76.1693L23.5763 74.8585ZM40.2831 78.1486C40.2831 82.0074 37.1437 85.1468 33.2849 85.1468C29.6138 85.1468 26.5939 82.3055 26.3088 78.7064L28.676 76.3391C28.9386 76.0765 29.086 75.7205 29.086 75.3494C29.086 73.0341 27.2024 71.1505 24.8871 71.1505C22.5718 71.1505 20.6882 73.0341 20.6882 75.3494C20.6882 75.7205 20.8356 76.0765 21.0982 76.339L23.4654 78.7063C23.1803 82.3054 20.1604 85.1468 16.4893 85.1468C12.6305 85.1468 9.49112 82.0074 9.49112 78.1486C9.49112 77.7903 8.96924 66.5586 10.6555 59.9534H11.3901C13.2994 59.9534 15.0714 59.005 16.1303 57.4165L19.7314 52.0149C20.2741 51.2011 20.6093 50.1692 20.6754 49.1355C21.9725 48.8221 23.3841 48.663 24.8871 48.663C26.3901 48.663 27.8017 48.8221 29.0988 49.1355C29.1648 50.1693 29.5002 51.2011 30.0428 52.0149L33.6438 57.4165C33.8932 57.7906 34.1825 58.1286 34.5034 58.4277C33.3655 57.6265 31.9801 57.1541 30.4856 57.1541C26.6268 57.1541 23.4875 60.2935 23.4875 64.1523C23.4875 68.0111 26.6268 71.1505 30.4856 71.1505C34.3444 71.1505 37.4838 68.0111 37.4838 64.1523C37.4838 62.101 36.5966 60.2531 35.1859 58.9719C36.1153 59.6028 37.2242 59.9534 38.3841 59.9534H39.1328C40.6172 65.2782 40.2831 70.8515 40.2831 78.1486ZM34.6845 64.1523C34.6845 66.4676 32.8009 68.3512 30.4856 68.3512C28.1704 68.3512 26.2867 66.4676 26.2867 64.1523C26.2867 61.837 28.1704 59.9534 30.4856 59.9534C32.8009 59.9534 34.6845 61.837 34.6845 64.1523ZM45.4882 50.4622L41.8871 55.8638C41.3645 56.6476 40.3815 57.1541 39.3827 57.1541H38.3841C37.413 57.1541 36.5116 56.6718 35.973 55.8638L32.3719 50.4622C32.0718 50.0119 31.8853 49.3602 31.8853 48.7615C31.8853 47.1637 33.1852 45.8637 34.7831 45.8637H43.0772C44.6749 45.8637 45.9749 47.1637 45.9749 48.7615C45.9749 49.3602 45.7884 50.0119 45.4882 50.4622Z" fill="#FFC59E" stroke="#FFC59E"/>
<path d="M19.2883 65.5522C20.0613 65.5522 20.6879 64.9256 20.6879 64.1526C20.6879 63.3796 20.0613 62.7529 19.2883 62.7529C18.5153 62.7529 17.8887 63.3796 17.8887 64.1526C17.8887 64.9256 18.5153 65.5522 19.2883 65.5522Z" fill="#FFC59E" stroke="#FFC59E"/>
<path d="M30.4856 65.5522C31.2586 65.5522 31.8852 64.9256 31.8852 64.1526C31.8852 63.3796 31.2586 62.7529 30.4856 62.7529C29.7126 62.7529 29.0859 63.3796 29.0859 64.1526C29.0859 64.9256 29.7126 65.5522 30.4856 65.5522Z" fill="#FFC59E" stroke="#FFC59E"/>
</svg>

<svg width="132" height="92" fill="none" xmlns="http://www.w3.org/2000/svg"><path d="M121.167 0h-15.77c-4.357 0-8.119 2.587-9.837 6.304-2.798-.652-5.806-.981-8.98-.981-3.172 0-6.181.33-8.98.98C75.883 2.588 72.12 0 67.765 0h-15.77C46.02 0 41.16 4.86 41.16 10.832c0 2.198.663 4.452 1.82 6.187l6.846 10.27c1.097 1.644 2.663 2.944 4.467 3.778-3.352 13.428-2.31 36.088-2.31 35.643 0 10.272 8.357 18.629 18.629 18.629 1.681 0 3.31-.225 4.861-.644 2.46 3.751 6.669 6.144 11.106 6.144 4.438 0 8.646-2.393 11.107-6.144 1.55.42 3.18.644 4.861.644 10.272 0 18.629-8.357 18.629-18.63 0-13.558.646-24.814-2.282-35.655 1.792-.835 3.348-2.129 4.438-3.765l6.847-10.27c1.157-1.735 1.82-3.99 1.82-6.186C132 4.86 127.14 0 121.167 0zm-66.91 24.337l-6.848-10.271c-.57-.856-.925-2.095-.925-3.234a5.516 5.516 0 015.51-5.51h15.77a5.516 5.516 0 015.51 5.51c0 1.139-.355 2.378-.925 3.234L65.5 24.337a5.498 5.498 0 01-4.584 2.453h-1.899c-1.9 0-3.768-.963-4.762-2.453zm32.324 61.18c-2.35 0-4.602-1.148-6.119-3.002a18.777 18.777 0 006.118-6.218 18.777 18.777 0 006.119 6.218c-1.517 1.854-3.768 3.001-6.118 3.001zm-2.493-25.063a2.666 2.666 0 012.493-1.728c1.139 0 2.113.72 2.492 1.728l-2.492 2.492-2.493-2.492zm31.767 6.256c0 7.337-5.97 13.306-13.307 13.306-6.98 0-12.722-5.403-13.264-12.246l4.5-4.501c.5-.5.78-1.176.78-1.882 0-4.402-3.581-7.984-7.983-7.984-4.403 0-7.984 3.582-7.984 7.984 0 .706.28 1.383.78 1.882l4.5 4.501c-.542 6.844-6.284 12.246-13.264 12.246-7.337 0-13.307-5.97-13.307-13.306 0-.682-.992-22.038 2.214-34.597h1.397c3.63 0 7-1.803 9.013-4.824l6.847-10.27c1.032-1.548 1.67-3.51 1.795-5.475 2.467-.596 5.15-.899 8.008-.899 2.858 0 5.542.303 8.009.899.125 1.965.763 3.927 1.795 5.475l6.847 10.27a10.862 10.862 0 001.634 1.923 13.226 13.226 0 00-7.64-2.422c-7.337 0-13.306 5.97-13.306 13.307 0 7.337 5.97 13.306 13.307 13.306 7.337 0 13.306-5.97 13.306-13.306 0-3.9-1.687-7.414-4.369-9.85a10.813 10.813 0 006.081 1.866h1.423c2.823 10.125 2.188 20.722 2.188 34.597zM105.21 40.097c0 4.402-3.582 7.984-7.984 7.984-4.403 0-7.984-3.582-7.984-7.984 0-4.403 3.581-7.984 7.984-7.984 4.402 0 7.984 3.581 7.984 7.984zm20.542-26.03l-6.847 10.27c-.994 1.49-2.863 2.453-4.762 2.453h-1.899a5.497 5.497 0 01-4.584-2.453h-.001l-6.847-10.27c-.57-.857-.925-2.096-.925-3.235a5.516 5.516 0 015.51-5.51h15.771a5.516 5.516 0 015.509 5.51c0 1.139-.354 2.378-.925 3.234z" fill="#FFC59E"/><path d="M75.936 42.758a2.661 2.661 0 100-5.322 2.661 2.661 0 000 5.322zm21.29 0a2.661 2.661 0 100-5.322 2.661 2.661 0 000 5.322z" fill="#FFC59E"/><path d="M43.077 43.065h-8.294a5.704 5.704 0 00-5.173 3.315 20.849 20.849 0 00-4.723-.516 20.85 20.85 0 00-4.723.516 5.703 5.703 0 00-5.173-3.316H6.697A5.704 5.704 0 001 48.762c0 1.156.349 2.342.957 3.254l3.6 5.401a5.683 5.683 0 002.35 1.987c-1.763 7.062-1.215 18.98-1.215 18.746 0 5.402 4.395 9.797 9.797 9.797.884 0 1.742-.118 2.557-.339 1.294 1.974 3.507 3.232 5.841 3.232s4.547-1.258 5.841-3.232c.816.221 1.673.34 2.557.34 5.402 0 9.797-4.396 9.797-9.798 0-7.131.34-13.05-1.2-18.753a5.68 5.68 0 002.334-1.98l3.601-5.401c.608-.912.957-2.098.957-3.254a5.704 5.704 0 00-5.697-5.697zM7.887 55.864l-3.601-5.402c-.3-.45-.487-1.102-.487-1.7 0-1.598 1.3-2.898 2.898-2.898h8.294c1.598 0 2.898 1.3 2.898 2.898 0 .598-.187 1.25-.487 1.7l-3.6 5.402a2.892 2.892 0 01-2.412 1.29h-.998c-1 0-1.982-.506-2.505-1.29zm17 32.175c-1.236 0-2.42-.603-3.218-1.578a9.876 9.876 0 003.218-3.27 9.876 9.876 0 003.218 3.27c-.798.975-1.982 1.578-3.218 1.578zm-1.31-13.18c.199-.53.711-.91 1.31-.91.6 0 1.112.38 1.31.91l-1.31 1.31-1.31-1.31zm16.706 3.29a7.006 7.006 0 01-6.998 6.998c-3.671 0-6.691-2.842-6.976-6.44l2.367-2.368a1.4 1.4 0 00.41-.99 4.204 4.204 0 00-4.199-4.199 4.204 4.204 0 00-4.199 4.2c0 .37.148.727.41.989l2.367 2.367c-.285 3.6-3.305 6.44-6.976 6.44a7.006 7.006 0 01-6.998-6.997c0-.359-.522-11.59 1.165-18.196h.734c1.91 0 3.681-.948 4.74-2.537l3.601-5.401c.543-.814.878-1.846.944-2.88 1.297-.313 2.71-.472 4.212-.472 1.503 0 2.915.16 4.212.473.066 1.033.401 2.065.944 2.879l3.6 5.401c.25.375.54.713.86 1.012a6.956 6.956 0 00-4.017-1.274 7.006 7.006 0 00-6.998 6.998 7.006 7.006 0 006.998 6.998 7.006 7.006 0 006.998-6.998 6.98 6.98 0 00-2.298-5.18c.93.63 2.038.981 3.198.981h.749c1.484 5.325 1.15 10.898 1.15 18.196zm-5.599-13.997a4.204 4.204 0 01-4.198 4.2 4.204 4.204 0 01-4.2-4.2 4.204 4.204 0 014.2-4.199 4.204 4.204 0 014.198 4.2zm10.804-13.69l-3.6 5.402c-.523.784-1.506 1.29-2.505 1.29h-.999a2.892 2.892 0 01-2.411-1.29l-3.601-5.402c-.3-.45-.487-1.102-.487-1.7 0-1.598 1.3-2.898 2.898-2.898h8.294c1.598 0 2.898 1.3 2.898 2.898 0 .598-.187 1.25-.487 1.7z" fill="#FFC59E" stroke="#FFC59E"/><path d="M19.288 65.552a1.4 1.4 0 100-2.799 1.4 1.4 0 000 2.8zm11.198 0a1.4 1.4 0 100-2.799 1.4 1.4 0 000 2.8z" fill="#FFC59E" stroke="#FFC59E"/></svg>
